usr/share/icons/biglinux-icons-material/scalable/apps/fractal.svg

<svg width="24" height="24" viewBox="0 0 24 24" fill="none" xmlns="http://www.w3.org/2000/svg">
<path fill-rule="evenodd" clip-rule="evenodd" d="M20.2988 20.6337H5.38372C4.51676 20.6337 3.81395 19.9309 3.81395 19.064V3.25451C4.76117 2.40651 5.95541 1.81118 7.39669 1.46852C8.12049 1.29157 8.8536 1.17326 9.59604 1.11359C9.71588 1.11486 9.83043 1.0996 9.93969 1.06779C11.3755 0.973736 12.8111 0.977551 14.2467 1.07924C15.5484 1.18066 16.8085 1.46308 18.0269 1.9265C20.0525 2.76044 21.4386 4.2069 22.185 6.26586C22.6119 7.50549 22.8639 8.78021 22.9411 10.09C23.0478 11.7347 23.0096 13.3758 22.8265 15.0133C22.6895 16.1642 22.3917 17.271 21.933 18.3336C21.5155 19.238 20.9708 20.0047 20.2988 20.6337Z" fill="#3C6EAC"/>
<path fill-rule="evenodd" clip-rule="evenodd" d="M20.3113 3.36628C21.1394 4.13791 21.764 5.10444 22.185 6.26586C22.6119 7.50549 22.8639 8.78021 22.9411 10.09C23.0478 11.7347 23.0096 13.3758 22.8265 15.0133C22.6895 16.1642 22.3917 17.271 21.933 18.3336C21.0824 20.1761 19.704 21.447 17.7978 22.1463C16.2531 22.6682 14.6647 22.943 13.0325 22.9706C11.1966 23.0661 9.37913 22.9287 7.57997 22.5585C4.26839 21.8208 2.22559 19.8018 1.45158 16.5017C1.12311 15.0161 0.974199 13.5124 1.00483 11.9906C0.968176 10.3724 1.14 8.77709 1.52031 7.20471C1.93889 5.61292 2.66281 4.33344 3.69209 3.36628L20.3113 3.36628Z" fill="#6AE5E8" fill-opacity="0.74902"/>
<path fill-rule="evenodd" clip-rule="evenodd" d="M20.317 3.37155C21.1422 4.14231 21.7649 5.10708 22.185 6.26586C22.6119 7.50549 22.8639 8.78021 22.9411 10.09C23.0478 11.7347 23.0096 13.3758 22.8265 15.0133C22.6895 16.1642 22.3917 17.271 21.933 18.3336C21.0838 20.173 19.7086 21.4427 17.8073 22.1428C17.9021 22.0662 17.9965 21.9891 18.0904 21.9114C21.8374 18.6488 22.9803 12.6318 19.5042 8.74238C17.1235 6.08486 12.8723 5.28603 10.104 7.83084C8.26115 9.5254 7.71343 12.5903 9.5385 14.5083C10.717 15.7461 12.7299 16.1079 14.0231 14.8306C14.8259 14.0377 15.0572 12.438 14.1872 11.5976C13.6711 11.0974 12.7635 10.957 12.2415 11.5265C11.9449 11.8507 11.8638 12.6041 12.2237 12.9145C12.4155 13.0806 12.7457 13.1202 12.9158 12.9027C13.0008 12.7959 13.0225 12.616 12.896 12.527C12.8406 12.4874 12.7497 12.4795 12.7101 12.5448C12.6983 12.5685 12.6983 12.612 12.7279 12.6278C12.7398 12.6338 12.7635 12.6357 12.7635 12.6219V12.612C12.7437 12.6061 12.7635 12.6041 12.7635 12.6041C12.7734 12.5982 12.7892 12.608 12.7892 12.6179C12.7952 12.6515 12.7655 12.6812 12.7358 12.6871C12.6607 12.703 12.6073 12.6318 12.5875 12.5645C12.5658 12.4162 12.7082 12.3075 12.8426 12.2877C13.1194 12.2561 13.3191 12.5171 13.3389 12.7702C13.3765 13.2447 12.9237 13.5829 12.4887 13.6007C11.7136 13.6363 11.1718 12.8967 11.156 12.177C11.1362 10.9708 12.2949 10.1384 13.4259 10.1443C15.2431 10.1542 16.4789 11.9021 16.4354 13.6086C16.3682 16.2562 13.8135 18.0496 11.3102 17.9448C7.55327 17.7867 4.80875 14.1385 5.01043 10.5793C5.19432 7.32267 7.33379 4.7561 10.1258 3.37198H9.47523L9.48116 3.37L20.317 3.37155Z" fill="#6AE5E8"/>
</svg>

<svg xmlns="http://www.w3.org/2000/svg" width="24" height="24" fill="none"><path fill="#3C6EAC" fill-rule="evenodd" d="M20.299 20.634H5.384a1.57 1.57 0 0 1-1.57-1.57V3.254c.947-.847 2.141-1.443 3.583-1.785a13.954 13.954 0 0 1 2.199-.355c.12 0 .234-.014.344-.046a31.627 31.627 0 0 1 4.307.011c1.301.102 2.561.384 3.78.848 2.025.833 3.412 2.28 4.158 4.339.427 1.24.679 2.514.756 3.824a27.94 27.94 0 0 1-.114 4.923 11.876 11.876 0 0 1-.894 3.32 7.297 7.297 0 0 1-1.634 2.3Z" clip-rule="evenodd"/><path fill="#6AE5E8" fill-opacity=".749" fill-rule="evenodd" d="M20.311 3.366c.828.772 1.453 1.738 1.874 2.9.427 1.24.679 2.514.756 3.824a27.94 27.94 0 0 1-.114 4.923 11.876 11.876 0 0 1-.894 3.32c-.85 1.843-2.229 3.114-4.135 3.813a15.624 15.624 0 0 1-4.765.825 21.423 21.423 0 0 1-5.453-.413c-3.312-.737-5.354-2.756-6.128-6.056a19.047 19.047 0 0 1-.447-4.511 18.491 18.491 0 0 1 .515-4.786c.419-1.592 1.143-2.872 2.172-3.839h16.62Z" clip-rule="evenodd"/><path fill="#6AE5E8" fill-rule="evenodd" d="M20.317 3.372c.825.77 1.448 1.735 1.868 2.894.427 1.24.679 2.514.756 3.824a27.94 27.94 0 0 1-.114 4.923 11.876 11.876 0 0 1-.894 3.32c-.85 1.84-2.224 3.11-4.126 3.81.095-.077.19-.154.283-.232 3.747-3.262 4.89-9.28 1.414-13.169-2.38-2.657-6.632-3.456-9.4-.911-1.843 1.694-2.39 4.76-.565 6.677 1.178 1.238 3.19 1.6 4.484.323.803-.793 1.034-2.393.164-3.233-.516-.5-1.423-.641-1.945-.072-.297.325-.378 1.078-.018 1.389.191.166.522.205.692-.012.085-.107.107-.287-.02-.376-.055-.04-.146-.047-.186.018-.012.024-.012.067.018.083.012.006.036.008.036-.006v-.01c-.02-.006 0-.008 0-.008.01-.006.025.004.025.014.006.034-.024.063-.053.07-.075.015-.129-.056-.149-.123-.021-.149.121-.258.256-.277.276-.032.476.23.496.482.037.475-.415.813-.85.83-.775.036-1.317-.703-1.333-1.423-.02-1.206 1.139-2.039 2.27-2.033 1.817.01 3.053 1.758 3.01 3.465-.068 2.647-2.623 4.44-5.126 4.336-3.757-.158-6.501-3.806-6.3-7.366.184-3.256 2.324-5.823 5.116-7.207h-.65l.005-.002 10.836.002Z" clip-rule="evenodd"/></svg>
